X: 13
T:Lngt ner i Smland
M:2/4
L:1/16
C:Roger Talroth
S:Vsen
K:C
:D>AA>A ABB>B B<cB2|d>ed>c A>Bc2|B>AG2 F4|D>AA>A ABB>B B<
cB2-|B4A4|F>GF>DC2D2|D8|
|:A>^FA2 B2d2|e>dc2d4|A>^FA2 G>AB2|c>BG2A4|A>^FA2 B2d2|B>AG2F4|E>FE>D C2
D2|D8:|
